X: 1
T: Madra Mor Madra Beag
M: 4/4
L: 1/8
R: hornpipe
K: Dmaj
|: (3ABc |
d>AF>E D>BA>F | A>FE>D E>cB>A | c>BA>F G>cB>G | A>B (3AGF E>AB>c |
d>AF>E D>BA>F | A>FE>D E>cB>A | c>BA>F G>FE>c | (3ded D2 D2 :|
|: AG |
F>Ad>A F>Ad>A | (3GAB e>d c>BA>G | F>Ad>A F>Ad>A | (3EFG c>B (3ABA (3GFE |
F>Ad>A F>Ad>A | (3GAB e>d c>BA>G | F>Ad>f e>AB>c | d>AF>E D2 :|
|: (3GFE |
F>Df>F e>Ed>D |G6 (3GFE | F>Df>F e>Ed>D | E6 (3GFE |
F>Df>F e>Ed>D |G6 F>E | F>Ad>A B>ge>c | d>f (3edc d2 :|
